assets/icons/qvision/19mp.svg

<svg xmlns="http://www.w3.org/2000/svg" height="24" viewBox="0 0 24 24" width="24"><path d="M0 0h24v24H0V0z" fill="none"/><path d="M19 3H5c-1.1 0-2 .9-2 2v14c0 1.1.9 2 2 2h14c1.1 0 2-.9 2-2V5c0-1.1-.9-2-2-2zm-7 7h3V9h-2c-.55 0-1-.45-1-1V6.5c0-.55.45-1 1-1h2.5c.55 0 1 .45 1 1v4c0 .55-.45 1-1 1H12V10zm1.5-2H15V6.5h-1.5V8zM7 5.5h3v6H8.5V7H7V5.5zm5 13h-1.5V14h-1v3H8v-3H7v4.5H5.5v-5c0-.55.45-1 1-1H11c.55 0 1 .45 1 1v5zm6.5-2.5c0 .55-.45 1-1 1h-2v1.5H14v-6h3.5c.55 0 1 .45 1 1V16zm-3-2H17v1.5h-1.5z"/></svg>

<svg width="24" height="24" viewBox="0 0 24 24" fill="none" xmlns="http://www.w3.org/2000/svg">
<g clip-path="url(#clip0_147_3136)">
<path d="M19 3H5C3.9 3 3 3.9 3 5V19C3 20.1 3.9 21 5 21H19C20.1 21 21 20.1 21 19V5C21 3.9 20.1 3 19 3ZM12 10H15V9H13C12.45 9 12 8.55 12 8V6.5C12 5.95 12.45 5.5 13 5.5H15.5C16.05 5.5 16.5 5.95 16.5 6.5V10.5C16.5 11.05 16.05 11.5 15.5 11.5H12V10ZM13.5 8H15V6.5H13.5V8ZM7 5.5H10V11.5H8.5V7H7V5.5ZM12 18.5H10.5V14H9.5V17H8V14H7V18.5H5.5V13.5C5.5 12.95 5.95 12.5 6.5 12.5H11C11.55 12.5 12 12.95 12 13.5V18.5ZM18.5 16C18.5 16.55 18.05 17 17.5 17H15.5V18.5H14V12.5H17.5C18.05 12.5 18.5 12.95 18.5 13.5V16ZM15.5 14H17V15.5H15.5V14Z" fill="#323232"/>
</g>
<defs>
<clipPath id="clip0_147_3136">
<rect width="24" height="24" fill="white"/>
</clipPath>
</defs>
</svg>
